assets/svg/icon_select2.svg

<svg width="24" height="24" viewBox="0 0 24 24" fill="none" xmlns="http://www.w3.org/2000/svg">
<path d="M6.38306 10.1477C4.79435 9.51219 4 9.19445 4 8.79961C4 8.40477 4.79435 8.08703 6.38306 7.45154L8.62984 6.55284C10.2185 5.91735 11.0129 5.59961 12 5.59961C12.9871 5.59961 13.7815 5.91735 15.3702 6.55284L17.6169 7.45154C19.2056 8.08703 20 8.40477 20 8.79961C20 9.19445 19.2056 9.51219 17.6169 10.1477L15.3702 11.0464C13.7815 11.6819 12.9871 11.9996 12 11.9996C11.0129 11.9996 10.2185 11.6819 8.62984 11.0464L6.38306 10.1477Z" stroke="#494949" stroke-width="1.2"/>
<path d="M20 12C20 12 19.2056 12.7126 17.6169 13.3481L15.3702 14.2468C13.7815 14.8823 12.9871 15.2 12 15.2C11.0129 15.2 10.2185 14.8823 8.62984 14.2468L6.38306 13.3481C4.79435 12.7126 4 12 4 12" stroke="#494949" stroke-width="1.2" stroke-linecap="round"/>
<path d="M20 15.1992C20 15.1992 19.2056 15.9118 17.6169 16.5473L15.3702 17.446C13.7815 18.0815 12.9871 18.3992 12 18.3992C11.0129 18.3992 10.2185 18.0815 8.62984 17.446L6.38306 16.5473C4.79435 15.9118 4 15.1992 4 15.1992" stroke="#494949" stroke-width="1.2" stroke-linecap="round"/>
</svg>

<svg xmlns="http://www.w3.org/2000/svg" width="24" height="24" fill="none"><path stroke="#494949" stroke-width="1.2" d="M6.383 10.148C4.794 9.512 4 9.194 4 8.8s.794-.713 2.383-1.348l2.247-.9C10.218 5.918 11.013 5.6 12 5.6s1.781.317 3.37.953l2.247.899C19.206 8.087 20 8.405 20 8.8c0 .394-.794.712-2.383 1.348l-2.247.898c-1.588.636-2.383.954-3.37.954s-1.781-.318-3.37-.954z"/><path stroke="#494949" stroke-linecap="round" stroke-width="1.2" d="M20 12s-.794.713-2.383 1.348l-2.247.899c-1.588.635-2.383.953-3.37.953s-1.781-.318-3.37-.953l-2.247-.899C4.794 12.713 4 12 4 12M20 15.2s-.794.712-2.383 1.347l-2.247.899c-1.588.635-2.383.953-3.37.953s-1.781-.318-3.37-.953l-2.247-.899C4.794 15.912 4 15.2 4 15.2"/></svg>
